public/selectResumeBg.svg

<svg xmlns="http://www.w3.org/2000/svg" width="1920" height="1082" fill="none"><path fill="url(#a)" fill-opacity=".04" fill-rule="evenodd" d="m1651.28 145.356-29.37 14.439c-29.36 14.438-89.43 43.971-175.74 16.76C1358.53 150 1244.64 66.702 1176.7 80.21c-66.61 12.851-87.29 122.509-134.2 175.423-46.917 52.914-122.743 50.397-193.294 55.236-71.886 5.496-138.497 18.347-194.626 55.893-54.793 36.889-99.103 98.472-157.836 127.348-58.733 28.877-134.558 26.36-189.351 63.249-56.129 37.545-91.225 114.497-155.232 136.017-62.672 20.864-154.255-13.703-199.38-31.315l-45.123-17.612-326.605-664.29C114.988-282.355 651.383-539.864 1185.32-802.378l465.96 947.734Z" clip-rule="evenodd"/><path fill="url(#b)" fill-opacity=".06" fill-rule="evenodd" d="m77.34 1587.55 31.768-18.63c31.768-18.64 96.749-56.76 195.88-33.36 100.575 22.55 235.301 106.63 310.452 85.84 73.706-19.93 87.837-144.73 136.119-208.01 48.281-63.28 133.601-66.73 212.393-78 80.238-12.11 153.938-32.05 213.838-78.84 58.45-45.94 103.09-118.73 166.63-156.01 63.53-37.27 148.85-40.72 207.31-86.66 59.89-46.79 92.92-136.07 162.98-165.523 68.63-28.606 174.29 2.616 226.39 18.65l52.11 16.035 421.58 718.618C1837.19 1940.51 1256.4 2273.95 678.8 2612.8L77.34 1587.55Z" clip-rule="evenodd"/><defs><linearGradient id="a" x1="850.379" x2="381.955" y1="539.128" y2="-413.612" gradientUnits="userSpaceOnUse"><stop stop-color="#1097CD"/><stop offset="1" stop-color="#00339B"/></linearGradient><linearGradient id="b" x1="943.746" x2="1548.38" y1="1079.28" y2="2109.94" gradientUnits="userSpaceOnUse"><stop stop-color="#1097CD"/><stop offset="1" stop-color="#00339B"/></linearGradient></defs></svg>

<svg width="1920" height="1082" viewBox="0 0 1920 1082" fill="none" xmlns="http://www.w3.org/2000/svg">
<path fill-rule="evenodd" clip-rule="evenodd" d="M1651.28 145.356L1621.91 159.795C1592.55 174.233 1532.48 203.766 1446.17 176.555C1358.53 150 1244.64 66.702 1176.7 80.2098C1110.09 93.0614 1089.41 202.719 1042.5 255.633C995.583 308.547 919.757 306.03 849.206 310.869C777.32 316.365 710.709 329.216 654.58 366.762C599.787 403.651 555.477 465.234 496.744 494.11C438.011 522.987 362.186 520.47 307.393 557.359C251.264 594.904 216.168 671.856 152.161 693.376C89.4888 714.24 -2.09429 679.673 -47.2184 662.061L-92.3425 644.449L-418.947 -19.8405C114.988 -282.355 651.383 -539.864 1185.32 -802.378L1651.28 145.356Z" fill="url(#paint0_linear_1695_1161)" fill-opacity="0.04"/>
<path fill-rule="evenodd" clip-rule="evenodd" d="M77.3398 1587.55L109.108 1568.92C140.876 1550.28 205.857 1512.16 304.988 1535.56C405.563 1558.11 540.289 1642.19 615.44 1621.4C689.146 1601.47 703.277 1476.67 751.559 1413.39C799.84 1350.11 885.16 1346.66 963.952 1335.39C1044.19 1323.28 1117.89 1303.34 1177.79 1256.55C1236.24 1210.61 1280.88 1137.82 1344.42 1100.54C1407.95 1063.27 1493.27 1059.82 1551.73 1013.88C1611.62 967.09 1644.65 877.81 1714.71 848.357C1783.34 819.751 1889 850.973 1941.1 867.007L1993.21 883.042L2414.79 1601.66C1837.19 1940.51 1256.4 2273.95 678.8 2612.8L77.3398 1587.55Z" fill="url(#paint1_linear_1695_1161)" fill-opacity="0.06"/>
<defs>
<linearGradient id="paint0_linear_1695_1161" x1="850.379" y1="539.128" x2="381.955" y2="-413.612" gradientUnits="userSpaceOnUse">
<stop stop-color="#1097CD"/>
<stop offset="1" stop-color="#00339B"/>
</linearGradient>
<linearGradient id="paint1_linear_1695_1161" x1="943.746" y1="1079.28" x2="1548.38" y2="2109.94" gradientUnits="userSpaceOnUse">
<stop stop-color="#1097CD"/>
<stop offset="1" stop-color="#00339B"/>
</linearGradient>
</defs>
</svg>
